X:1
T:[ID 2-124]
T:[ID 2-124]
T:Bezeichnung standardisiert: Menuett Men\"uet 2. \"Ahnlich in dieser Quelle: ID 4-50v;
T:Urheber unbekannt Datum in der hier transkribierten schriftlichen Quelle: 1767
C:Urheber unbekannt
C:Datum in der hier transkribierten schriftlichen Quelle: 1767
L:1/8
M:3/4
K:D
V:1 treble 
V:1
 d2 d2 fa | g4 ec | d2 d2 fa | Tg4 ec | (df)(fd)(dA) | (ce)(ec)(cA) | BdcBA^G | A6 :: g4 ec | %9
 d2 fd A2 | BAGFED | C2 B,C A,2 | D2 D2 FA | G4 EC | d2 d2 fa | g4 ec | (3BAG FEDC | D6 :| %18

